svgs/sharp-light/credit-card-front.svg

<svg xmlns="http://www.w3.org/2000/svg" viewBox="0 0 576 512"><!--! Font Awesome Pro 6.6.0 by @fontawesome - https://fontawesome.com License - https://fontawesome.com/license (Commercial License) Copyright 2024 Fonticons, Inc. --><path d="M544 64l0 384L32 448 32 64l512 0zM32 32L0 32 0 64 0 448l0 32 32 0 512 0 32 0 0-32 0-384 0-32-32 0L32 32zM96 288l0 32 384 0 0-32L96 288zm0 64l0 32 96 0 0-32-96 0zm288 0l-160 0 0 32 160 0 0-32zm8-208l80 0 0 64-80 0 0-64zm-32-32l0 32 0 64 0 32 32 0 80 0 32 0 0-32 0-64 0-32-32 0-80 0-32 0z"/></svg>

<svg xmlns="http://www.w3.org/2000/svg" viewBox="0 0 576 512"><!--! Font Awesome Pro 6.4.0 by @fontawesome - https://fontawesome.com License - https://fontawesome.com/license (Commercial License) Copyright 2023 Fonticons, Inc. --><path d="M544 64V448H32V64H544zM32 32H0V64 448v32H32 544h32V448 64 32H544 32zM96 288v32H480V288H96zm0 64v32h96V352H96zm288 0H224v32H384V352zm8-208h80v64H392V144zm-32-32v32 64 32h32 80 32V208 144 112H472 392 360z"/></svg>
